X: 1168
T: Magowan's Jig.
B:O'Neill's Music of Ireland
N:O'Neill's - 1168
Z:Transcribed by Stephen Foy (shf@access.digex.net)
Z:abc 1.6
M:9/8
R:slipjig
K:C
c>AG GEC DEG | c>AG GEC D2 E | c>AG GEC DEG | cAc GEG A2 c :|
c>eg gea gec | c>eg gec d2 e | c>eg gea gec | cBA GEC E2 G |
c>eg gea gec | ceg gea e2 g | agf gfe dcB | cAc GEG A2 c ||


